src/assets/icons/ico-close.svg

<svg width="24" height="24" viewBox="0 0 24 24" fill="none" xmlns="http://www.w3.org/2000/svg">
<path d="M13.122 11.6464L12.7684 12L13.122 12.3536L21.3407 20.5723C21.5531 20.7846 21.5531 21.1284 21.3407 21.3407C21.2344 21.4471 21.0962 21.5 20.9565 21.5C20.8168 21.5 20.6786 21.4471 20.5723 21.3407L12.3536 13.122L12 12.7684L11.6464 13.122L3.4277 21.3407C3.32135 21.4471 3.18317 21.5 3.04348 21.5C2.90379 21.5 2.7656 21.4471 2.65926 21.3407C2.44691 21.1284 2.44691 20.7846 2.65926 20.5723L10.878 12.3536L11.2316 12L10.878 11.6464L2.65926 3.4277C2.44691 3.21535 2.44691 2.87161 2.65926 2.65926C2.87161 2.44691 3.21535 2.44691 3.4277 2.65926L11.6464 10.878L12 11.2316L12.3536 10.878L20.5723 2.65926C20.7846 2.44691 21.1284 2.44691 21.3407 2.65926C21.5531 2.87161 21.5531 3.21535 21.3407 3.4277L13.122 11.6464Z" fill="#353B45" stroke="#353B45"/>
</svg>

<svg width="24" height="24" fill="none" xmlns="http://www.w3.org/2000/svg"><path d="M13.122 11.6464 12.7684 12l.3536.3536 8.2187 8.2187a.543.543 0 0 1 0 .7684.5398.5398 0 0 1-.3842.1593.5398.5398 0 0 1-.3842-.1593l-8.2187-8.2187L12 12.7684l-.3536.3536-8.2187 8.2187a.54.54 0 0 1-.3842.1593.54.54 0 0 1-.3842-.1593.543.543 0 0 1 0-.7684l8.2187-8.2187.3536-.3536-.3536-.3536-8.2187-8.2187a.5431.5431 0 0 1 0-.7684.5431.5431 0 0 1 .7684 0l8.2187 8.2187.3536.3536.3536-.3536 8.2187-8.2187a.543.543 0 0 1 .7684 0 .543.543 0 0 1 0 .7684l-8.2187 8.2187Z" fill="#353B45" stroke="#353B45"/></svg>
